actions/24/media-skip-forward.svg

<?xml version="1.0" encoding="UTF-8" standalone="no"?>
<!-- Created with Inkscape (http://www.inkscape.org/) -->

<svg
   xmlns:svg="http://www.w3.org/2000/svg"
   xmlns="http://www.w3.org/2000/svg"
   xmlns:xlink="http://www.w3.org/1999/xlink"
   version="1.0"
   width="24"
   height="24"
   id="svg2402">
  <defs
     id="defs2404">
    <linearGradient
       id="linearGradient5106">
      <stop
         id="stop5108"
         style="stop-color:#729fcf;stop-opacity:1"
         offset="0" />
      <stop
         id="stop5110"
         style="stop-color:#386ea6;stop-opacity:1"
         offset="1" />
    </linearGradient>
    <linearGradient
       x1="16.080709"
       y1="25.692829"
       x2="16.080709"
       y2="11.541964"
       id="linearGradient3328"
       xlink:href="#linearGradient5106"
       gradientUnits="userSpaceOnUse"
       gradientTransform="matrix(0.5137799,0,0,-0.5217718,-1.8455883,25.022644)" />
    <linearGradient
       x1="20.622229"
       y1="5.2263961"
       x2="20.622229"
       y2="44.056026"
       id="linearGradient3203"
       xlink:href="#linearGradient4222"
       gradientUnits="userSpaceOnUse"
       gradientTransform="matrix(-0.5140615,0,0,0.5222723,24.325082,-0.03453611)" />
    <linearGradient
       x1="20.622229"
       y1="15.425297"
       x2="20.622229"
       y2="34.888695"
       id="linearGradient3199"
       xlink:href="#linearGradient4222"
       gradientUnits="userSpaceOnUse"
       gradientTransform="matrix(-0.5140615,0,0,0.5222723,24.325082,-0.03453611)" />
    <linearGradient
       id="linearGradient4222">
      <stop
         id="stop4224"
         style="stop-color:white;stop-opacity:1"
         offset="0" />
      <stop
         id="stop4226"
         style="stop-color:white;stop-opacity:0"
         offset="1" />
    </linearGradient>
    <linearGradient
       x1="20.622229"
       y1="5.2263961"
       x2="20.622229"
       y2="44.056026"
       id="linearGradient3201"
       xlink:href="#linearGradient4222"
       gradientUnits="userSpaceOnUse"
       gradientTransform="matrix(-0.4799341,0,0,0.5239545,24.153254,-0.0749087)" />
  </defs>
  <g
     id="layer1">
    <path
       d="m 22.494246,6.4996236 c 0.01344,3.8458404 6.88e-4,8.0483164 0,12.0007534 l -2.5,0 0,-5.804713 -9.3,5.543827 0,-5.576437 -9.2003773,5.576437 0,-11.4789814 9.2003773,5.5764374 0,-5.5764374 9.3,5.5438274 c -8.42e-4,-1.863426 0,-4.0628161 0,-5.8047134 l 2.5,0 z"
       id="path2339"
       style="fill:url(#linearGradient3328);fill-opacity:1;fill-rule:evenodd;stroke:#204a87;stroke-width:0.99900001;stroke-linecap:square;stroke-linejoin:round;stroke-miterlimit:4;stroke-opacity:1;stroke-dasharray:none;stroke-dashoffset:0.69999992" />
    <path
       d="m 11.6975,16.472356 0.0055,-7.9449479 6.683323,3.9727109 -6.688869,3.972237 z"
       id="path3192"
       style="opacity:0.4;fill:none;stroke:url(#linearGradient3203);stroke-width:1;stroke-linecap:square;stroke-linejoin:miter;stroke-miterlimit:4;stroke-opacity:1;stroke-dasharray:none;stroke-dashoffset:0.69999992" />
    <path
       d="m 2.4912017,16.474144 0.00442,-7.9524749 6.656293,3.9784499 -6.660717,3.974025 z"
       id="path3190"
       style="opacity:0.4;fill:none;stroke:url(#linearGradient3199);stroke-width:1;stroke-linecap:square;stroke-linejoin:miter;stroke-miterlimit:4;stroke-opacity:1;stroke-dasharray:none;stroke-dashoffset:0.69999992" />
    <path
       d="m 20.982229,7.4838955 0.528121,0 0,10.0322095 -0.532209,0 0.0041,-10.0322095 z"
       id="path2343"
       style="opacity:0.4;fill:none;stroke:url(#linearGradient3201);stroke-width:0.9677909;stroke-linecap:square;stroke-linejoin:miter;stroke-miterlimit:4;stroke-opacity:1;stroke-dasharray:none;stroke-dashoffset:0.69999992" />
  </g>
</svg>

<?xml version="1.0" encoding="UTF-8" standalone="no"?>
<!-- Created with Inkscape (http://www.inkscape.org/) -->
<svg
   xmlns:dc="http://purl.org/dc/elements/1.1/"
   xmlns:cc="http://creativecommons.org/ns#"
   xmlns:rdf="http://www.w3.org/1999/02/22-rdf-syntax-ns#"
   xmlns:svg="http://www.w3.org/2000/svg"
   xmlns="http://www.w3.org/2000/svg"
   xmlns:xlink="http://www.w3.org/1999/xlink"
   xmlns:sodipodi="http://sodipodi.sourceforge.net/DTD/sodipodi-0.dtd"
   xmlns:inkscape="http://www.inkscape.org/namespaces/inkscape"
   width="24"
   height="24"
   id="svg2402"
   sodipodi:version="0.32"
   inkscape:version="0.46"
   version="1.0"
   sodipodi:docname="media-skip-forward.svg"
   inkscape:output_extension="org.inkscape.output.svg.inkscape">
  <defs
     id="defs2404">
    <linearGradient
       id="linearGradient5106">
      <stop
         id="stop5108"
         offset="0"
         style="stop-color:#729fcf;stop-opacity:1;" />
      <stop
         id="stop5110"
         offset="1"
         style="stop-color:#386ea6;stop-opacity:1;" />
    </linearGradient>
    <linearGradient
       inkscape:collect="always"
       xlink:href="#linearGradient5106"
       id="linearGradient3328"
       gradientUnits="userSpaceOnUse"
       gradientTransform="matrix(0.5137799,0,0,-0.5217718,-1.8455883,25.022644)"
       x1="16.080709"
       y1="25.692829"
       x2="16.080709"
       y2="11.541964" />
    <linearGradient
       inkscape:collect="always"
       xlink:href="#linearGradient4222"
       id="linearGradient3203"
       gradientUnits="userSpaceOnUse"
       gradientTransform="matrix(-0.5140615,0,0,0.5222723,24.325082,-3.4536111e-2)"
       x1="20.622229"
       y1="5.2263961"
       x2="20.622229"
       y2="44.056026" />
    <linearGradient
       inkscape:collect="always"
       xlink:href="#linearGradient4222"
       id="linearGradient3199"
       gradientUnits="userSpaceOnUse"
       gradientTransform="matrix(-0.5140615,0,0,0.5222723,24.325082,-3.4536111e-2)"
       x1="20.622229"
       y1="15.425297"
       x2="20.622229"
       y2="34.888695" />
    <linearGradient
       id="linearGradient4222"
       inkscape:collect="always">
      <stop
         id="stop4224"
         offset="0"
         style="stop-color:#ffffff;stop-opacity:1;" />
      <stop
         id="stop4226"
         offset="1"
         style="stop-color:#ffffff;stop-opacity:0;" />
    </linearGradient>
    <linearGradient
       inkscape:collect="always"
       xlink:href="#linearGradient4222"
       id="linearGradient3201"
       gradientUnits="userSpaceOnUse"
       gradientTransform="matrix(-0.4799341,0,0,0.5239545,24.153254,-7.4908699e-2)"
       x1="20.622229"
       y1="5.2263961"
       x2="20.622229"
       y2="44.056026" />
  </defs>
  <sodipodi:namedview
     id="base"
     pagecolor="#ffffff"
     bordercolor="#666666"
     borderopacity="1.0"
     inkscape:pageopacity="0.0"
     inkscape:pageshadow="2"
     inkscape:zoom="11.197802"
     inkscape:cx="16"
     inkscape:cy="16"
     inkscape:current-layer="layer1"
     showgrid="true"
     inkscape:grid-bbox="true"
     inkscape:document-units="px"
     inkscape:window-width="640"
     inkscape:window-height="720"
     inkscape:window-x="0"
     inkscape:window-y="91" />
  <metadata
     id="metadata2407">
    <rdf:RDF>
      <cc:Work
         rdf:about="">
        <dc:format>image/svg+xml</dc:format>
        <dc:type
           rdf:resource="http://purl.org/dc/dcmitype/StillImage" />
      </cc:Work>
    </rdf:RDF>
  </metadata>
  <g
     id="layer1"
     inkscape:label="Layer 1"
     inkscape:groupmode="layer">
    <path
       style="fill:url(#linearGradient3328);fill-opacity:1;fill-rule:evenodd;stroke:#204a87;stroke-width:0.99900001000000005;stroke-linecap:square;stroke-linejoin:round;stroke-miterlimit:4;stroke-dasharray:none;stroke-dashoffset:0.69999992000000000;stroke-opacity:1"
       d="M 22.494246,6.4996236 C 22.50769,10.345464 22.494934,14.54794 22.494246,18.500377 L 19.994246,18.500377 L 19.994246,12.695664 L 10.694246,18.239491 L 10.694246,12.663054 L 1.4938687,18.239491 L 1.4938687,6.7605096 L 10.694246,12.336947 L 10.694246,6.7605096 L 19.994246,12.304337 C 19.993404,10.440911 19.994246,8.2415209 19.994246,6.4996236 L 22.494246,6.4996236 z"
       id="path2339"
       sodipodi:nodetypes="ccccccccccccc" />
    <path
       style="opacity:0.40000000000000002;fill:none;fill-opacity:1;fill-rule:evenodd;stroke:url(#linearGradient3203);stroke-width:1;stroke-linecap:square;stroke-linejoin:miter;stroke-miterlimit:4;stroke-dasharray:none;stroke-dashoffset:0.69999992000000000;stroke-opacity:1"
       d="M 11.6975,16.472356 L 11.703046,8.5274081 L 18.386369,12.500119 L 11.6975,16.472356 z"
       id="path3192" />
    <path
       style="opacity:0.40000000000000002;fill:none;fill-opacity:1;fill-rule:evenodd;stroke:url(#linearGradient3199);stroke-width:1;stroke-linecap:square;stroke-linejoin:miter;stroke-miterlimit:4;stroke-dasharray:none;stroke-dashoffset:0.69999992000000000;stroke-opacity:1"
       d="M 2.4912017,16.474144 L 2.4956257,8.5216691 L 9.1519187,12.500119 L 2.4912017,16.474144 z"
       id="path3190" />
    <path
       style="opacity:0.40000000000000002;fill:none;fill-opacity:1;fill-rule:evenodd;stroke:url(#linearGradient3201);stroke-width:0.96779090000000001;stroke-linecap:square;stroke-linejoin:miter;stroke-miterlimit:4;stroke-dasharray:none;stroke-dashoffset:0.69999992000000000;stroke-opacity:1"
       d="M 20.982229,7.4838955 L 21.51035,7.4838955 L 21.51035,17.516105 L 20.978141,17.516105 L 20.982229,7.4838955 z"
       id="path2343" />
  </g>
</svg>
